blockchains/ethereum/assets/0x2956356cD2a2bf3202F771F50D3D14A367b48070/logo.svg

<svg fill="none" height="250" viewBox="0 0 250 250" width="250" xmlns="http://www.w3.org/2000/svg"><path d="m70.0853 247.949c62.8377 0 62.8377-.935 73.4927-4.098 13.924-4.133-39.313-40.984-73.4927-40.984-34.1801 0-61.88852 10.092-61.88852 22.541s27.70982 22.541 61.88852 22.541z" fill="#000"/><path d="m212.772 56.2643 2.89 3.1147-2.527 3.4163c-81.952 110.8057-129.162 160.9757-149.1926 154.2467-12.2007-4.098-24.4363-16.425-36.6721-34.323-4.3009-6.291-8.3395-12.916-12.0127-19.509-2.446-4.39-4.5163-8.394-5.5912-10.649-1.37122-2.876-1.95015-4.649-2.40944-6.976-.02803-.143-.02803-.143-.05466-.28-.1917-.988-.25802-1.3-.40132-1.84-2.46599-9.294-3.72725-18.923-3.72725-28.714 0-61.6797 50.00097-111.68069 111.68027-111.68069 19.323 0 37.945 4.91785 54.447 14.14949l.427.2666c13.511 9.4069 27.883 22.3327 43.144 38.7779zm-48.791-30.2246c-14.93-8.3033-31.752-12.7235-49.227-12.7235-56.0206 0-101.4344 45.4138-101.4344 101.4348 0 8.902 1.1456 17.648 3.3846 26.086.2214.835.3216 1.306.5564 2.517.0247.127.0247.127.0484.247.2964 1.502.6092 2.46 1.6063 4.552.9807 2.057 2.9513 5.868 5.2927 10.071 3.5304 6.336 7.41 12.7 11.5206 18.713 11.0549 16.171 22.0185 27.215 31.4765 30.393 12.6144 4.237 60.1029-46.032 135.1499-147.1954-13.625-14.3816-26.424-25.7467-38.374-34.0949z" fill="#000"/><path d="m163.981 26.036c-14.93-8.3033-31.752-12.7235-49.227-12.7235-56.0207 0-101.4344 45.4137-101.4344 101.4345 0 8.902 1.1456 17.648 3.3846 26.086.2214.835.3215 1.306.5564 2.517.0246.127.0246.127.0483.247.2965 1.503.6092 2.46 1.6064 4.552.9806 2.057 2.9513 5.868 5.2927 10.071 3.5303 6.336 7.4099 12.7 11.5205 18.713 11.0549 16.171 22.0186 27.216 31.4765 30.393 12.6144 4.237 60.103-46.032 135.15-147.1952-13.625-14.3815-26.424-25.7466-38.374-34.0948z" fill="#ec1c79"/><path d="m135.246 246.923c-61.6796 0-111.6806-50.001-111.6806-111.68 0-61.6795 50.001-111.6805 111.6806-111.6805 61.679 0 111.68 50.001 111.68 111.6805 0 61.679-50.001 111.68-111.68 111.68zm0-10.246c56.02 0 101.434-45.413 101.434-101.434 0-56.0209-45.414-101.4346-101.434-101.4346-56.0209 0-101.4347 45.4137-101.4347 101.4346 0 56.021 45.4138 101.434 101.4347 101.434z" fill="#000"/><path d="m135.246 236.674c56.021 0 101.434-45.414 101.434-101.435 0-56.0206-45.413-101.4343-101.434-101.4343-56.0207 0-101.4345 45.4137-101.4345 101.4343 0 56.021 45.4138 101.435 101.4345 101.435z" fill="#fff"/><g fill="#000"><path clip-rule="evenodd" d="m59.3689 156.019-13.4263-40.451h11.7623l7 23.238 7.7459-23.353h9.582l7.7459 23.353 7-23.238h11.5323l-13.4257 40.451h-9.6968l-8.0901-23.123-8.0328 23.123zm53.3611-.287v-40.164h32.303v9.467h-21.287v6.082h19.279v8.779h-19.279v6.369h21.574v9.467zm48.081 0v-30.41h-12.049v-9.754h35.23v9.754h-12.049v30.41zm28.058 0v-40.164h11.131v15.033h14.287v-15.033h11.131v40.164h-11.131v-15.262h-14.287v15.262z" fill-rule="evenodd"/><path d="m9.72913 103.488c-2.8343-1.417-3.98313-4.8635-2.56598-7.6978 1.41716-2.8343 4.86365-3.9832 7.69795-2.566l16.3934 8.1968c2.8343 1.417 3.9832 4.864 2.566 7.698-1.4171 2.834-4.8636 3.983-7.6979 2.566z"/><path d="m7.84161 130.667c-2.87722-1.327-4.13321-4.736-2.80534-7.613 1.32787-2.878 4.73676-4.134 7.61393-2.806l16.3935 7.566c2.8772 1.328 4.1332 4.737 2.8053 7.614-1.3278 2.877-4.7367 4.133-7.6139 2.805z"/></g></svg>

<svg width="250" height="250" viewBox="0 0 250 250" fill="none" xmlns="http://www.w3.org/2000/svg">
<path d="M70.0853 247.949C132.923 247.949 132.923 247.014 143.578 243.851C157.502 239.718 104.265 202.867 70.0853 202.867C35.9052 202.867 8.19678 212.959 8.19678 225.408C8.19678 237.857 35.9066 247.949 70.0853 247.949Z" fill="black"/>
<path d="M212.772 56.2643L215.662 59.379L213.135 62.7953C131.183 173.601 83.973 223.771 63.9424 217.042C51.7417 212.944 39.5061 200.617 27.2703 182.719C22.9694 176.428 18.9308 169.803 15.2576 163.21C12.8116 158.82 10.7413 154.816 9.6664 152.561C8.29518 149.685 7.71625 147.912 7.25696 145.585C7.22893 145.442 7.22893 145.442 7.2023 145.305C7.0106 144.317 6.94428 144.005 6.80098 143.465C4.33499 134.171 3.07373 124.542 3.07373 114.751C3.07373 53.0713 53.0747 3.07031 114.754 3.07031C134.077 3.07031 152.699 7.98816 169.201 17.2198L169.628 17.4864C183.139 26.8933 197.511 39.8191 212.772 56.2643ZM163.981 26.0397C149.051 17.7364 132.229 13.3162 114.754 13.3162C58.7334 13.3162 13.3196 58.73 13.3196 114.751C13.3196 123.653 14.4652 132.399 16.7042 140.837C16.9256 141.672 17.0258 142.143 17.2606 143.354C17.2853 143.481 17.2853 143.481 17.309 143.601C17.6054 145.103 17.9182 146.061 18.9153 148.153C19.896 150.21 21.8666 154.021 24.208 158.224C27.7384 164.56 31.618 170.924 35.7286 176.937C46.7835 193.108 57.7471 204.152 67.2051 207.33C79.8195 211.567 127.308 161.298 202.355 60.1346C188.73 45.753 175.931 34.3879 163.981 26.0397Z" fill="black"/>
<path d="M163.981 26.036C149.051 17.7327 132.229 13.3125 114.754 13.3125C58.7333 13.3125 13.3196 58.7262 13.3196 114.747C13.3196 123.649 14.4652 132.395 16.7042 140.833C16.9256 141.668 17.0257 142.139 17.2606 143.35C17.2852 143.477 17.2852 143.477 17.3089 143.597C17.6054 145.1 17.9181 146.057 18.9153 148.149C19.8959 150.206 21.8666 154.017 24.208 158.22C27.7383 164.556 31.6179 170.92 35.7285 176.933C46.7834 193.104 57.7471 204.149 67.205 207.326C79.8194 211.563 127.308 161.294 202.355 60.1308C188.73 45.7493 175.931 34.3842 163.981 26.036Z" fill="#EC1C79"/>
<path d="M135.246 246.923C73.5664 246.923 23.5654 196.922 23.5654 135.243C23.5654 73.5635 73.5664 23.5625 135.246 23.5625C196.925 23.5625 246.926 73.5635 246.926 135.243C246.926 196.922 196.925 246.923 135.246 246.923ZM135.246 236.677C191.266 236.677 236.68 191.264 236.68 135.243C236.68 79.2221 191.266 33.8084 135.246 33.8084C79.2251 33.8084 33.8113 79.2221 33.8113 135.243C33.8113 191.264 79.2251 236.677 135.246 236.677Z" fill="black"/>
<path d="M135.246 236.674C191.267 236.674 236.68 191.26 236.68 135.239C236.68 79.2184 191.267 33.8047 135.246 33.8047C79.2253 33.8047 33.8115 79.2184 33.8115 135.239C33.8115 191.26 79.2253 236.674 135.246 236.674Z" fill="white"/>
<path fill-rule="evenodd" clip-rule="evenodd" d="M59.3689 156.019L45.9426 115.568H57.7049L64.7049 138.806L72.4508 115.453H82.0328L89.7787 138.806L96.7787 115.568H108.311L94.8853 156.019H85.1885L77.0984 132.896L69.0656 156.019H59.3689ZM112.73 155.732V115.568H145.033V125.035H123.746V131.117H143.025V139.896H123.746V146.265H145.32V155.732H112.73ZM160.811 155.732V125.322H148.762V115.568H183.992V125.322H171.943V155.732H160.811ZM188.869 155.732V115.568H200V130.601H214.287V115.568H225.418V155.732H214.287V140.47H200V155.732H188.869Z" fill="black"/>
<path d="M9.72913 103.488C6.89483 102.071 5.746 98.6245 7.16315 95.7902C8.58031 92.9559 12.0268 91.807 14.8611 93.2242L31.2545 101.421C34.0888 102.838 35.2377 106.285 33.8205 109.119C32.4034 111.953 28.9569 113.102 26.1226 111.685L9.72913 103.488Z" fill="black"/>
<path d="M7.84161 130.667C4.96439 129.34 3.7084 125.931 5.03627 123.054C6.36414 120.176 9.77303 118.92 12.6502 120.248L29.0437 127.814C31.9209 129.142 33.1769 132.551 31.849 135.428C30.5212 138.305 27.1123 139.561 24.2351 138.233L7.84161 130.667Z" fill="black"/>
</svg>
